Adwaita++/apps/scalable/reco.svg

<svg height="128" viewBox="0 0 128 128" width="128" xmlns="http://www.w3.org/2000/svg">
  <path d="m124 64c0 7.8793-1.552 15.6815-4.567 22.961s-7.435 13.894-13.007 19.465c-5.571 5.572-12.1854 9.991-19.465 13.007-7.2795 3.015-15.0817 4.567-22.961 4.567s-15.6815-1.552-22.961-4.567c-7.2795-3.016-13.8939-7.435-19.4654-13.007-5.5715-5.571-9.9911-12.1855-13.00637-19.465-3.01529-7.2795-4.56723-15.0817-4.56723-22.961s1.55195-15.6815 4.56723-22.961c3.01527-7.2795 7.43487-13.8939 13.00637-19.4654s12.1859-9.9911 19.4654-13.00638 15.0817-4.56722 22.961-4.56722c15.913 0 31.1742 6.3214 42.426 17.5736 11.253 11.2522 17.574 26.5134 17.574 42.4264z" fill="#deddda"/>
  <path d="m120 62c0-30.928-25.072-56.00001-55.9999-56.00001-30.928 0-56.00004 25.07201-56.00004 56.00001v2c0 30.928 25.07204 56 56.00004 56 30.9279 0 55.9999-25.072 55.9999-56z" fill="#d5d3cf"/>
  <path d="m124 62c0 15.913-6.321 31.1742-17.574 42.426-11.2518 11.253-26.513 17.574-42.426 17.574-7.8793 0-15.6815-1.552-22.961-4.567-7.2795-3.016-13.8939-7.435-19.4654-13.007-5.5715-5.5711-9.9911-12.1855-13.00637-19.465-3.01528-7.2795-4.56723-15.0817-4.56723-22.961s1.55194-15.6815 4.56723-22.961c3.01527-7.2795 7.43487-13.8939 13.00637-19.4654s12.1859-9.9911 19.4654-13.00638 15.0817-4.56723 22.961-4.56723 15.6815 1.55195 22.961 4.56723c7.2796 3.01528 13.894 7.43488 19.465 13.00638 5.572 5.5715 9.992 12.1859 13.007 19.4654s4.567 15.0817 4.567 22.961z" fill="#f6f5f4"/>
  <path d="m64 116c29.8234 0 54-24.1766 54-54s-24.1766-54.00002-54-54.00002-54 24.17662-54 54.00002 24.1766 54 54 54z" fill="#e01b24"/>
  <path d="m64.0001 7.99999c-14.3217 0-28.0568 5.68931-38.1837 15.81621-10.127 10.127-15.8163 23.8621-15.8163 38.1838.0096.3904.0235.7808.0415 1.1709.2176-14.1703 5.9971-27.6872 16.0916-37.6344 10.0946-9.9472 23.6949-15.5273 37.8669-15.53651 14.1138.00751 27.6637 5.54041 37.7489 15.41421 10.085 9.8737 15.903 23.3035 16.21 37.4139.016-.2759.029-.552.041-.8281 0-7.0914-1.397-14.1133-4.11-20.6649-2.714-6.5516-6.692-12.5045-11.706-17.5189-5.0145-5.0143-10.9674-8.9919-17.519-11.7057-6.5515-2.71376-13.5735-4.11051-20.6649-4.11051z" opacity=".1"/>
  <path d="m78.0541 94.0944c0 2.5026-6.5214 4.9056-14.5298 4.9056s-14.5062-2.403-14.5062-4.9056c0-2.5027 6.4978-4.1572 14.5062-4.1572s14.5298 1.6545 14.5298 4.1572z" fill="#9a9996"/>
  <g fill="#deddda">
    <path d="m78.0248 93.8795c0 2.1774-6.4921 3.9423-14.5005 3.9423s-14.5005-1.7649-14.5005-3.9423c0-2.1773 6.4921-3.9423 14.5005-3.9423s14.5005 1.765 14.5005 3.9423z"/>
    <path d="m78.0248 53.559h-28.3577v-1.2234h28.3577z"/>
    <path d="m63.713 94.4158h-.3773c-.8469 0-1.5333-.6865-1.5333-1.5333v-13.6317h3.4439v13.6317c0 .8468-.6865 1.5333-1.5333 1.5333z"/>
    <path d="m77.569 49.1998v15.9307c0 7.4939-6.075 13.5688-13.5689 13.5688s-13.5688-6.0749-13.5688-13.5688v-15.9307h-2.6989v16.2678c0 8.9844 7.2833 16.2677 16.2677 16.2677s16.2678-7.2833 16.2678-16.2677v-16.2678z"/>
  </g>
  <path d="m64.0756 76.8493c-6.5793 0-11.9623-5.383-11.9623-11.9623v-23.9247c0-6.5792 5.383-11.9623 11.9623-11.9623 6.5792 0 11.9623 5.3831 11.9623 11.9623v23.9247c0 6.5793-5.3831 11.9623-11.9623 11.9623z" fill="#60767b"/>
  <path d="m64.0756 76.8493c-6.5793 0-11.9623-5.383-11.9623-11.9623v-23.9247c0-6.5792 5.383-11.9623 11.9623-11.9623 6.5792 0 11.9623 5.3831 11.9623 11.9623v23.9247c0 6.5793-5.3831 11.9623-11.9623 11.9623z" fill="#deddda"/>
  <path d="m52.0378 61.2951v3.5919c0 6.5793 5.383 11.9623 11.9624 11.9623 6.5792 0 11.9622-5.383 11.9622-11.9623v-3.6272" fill="#9a9996"/>
  <path d="m76.0957 61.4343h-24.0886v-5.673h24.0886z" fill="#57e389"/>
</svg>

<svg xmlns="http://www.w3.org/2000/svg" width="128" height="128" viewBox="0 0 128 128">
 <path fill="#DEDDDA" d="M124 64C124 71.8793 122.448 79.6815 119.433 86.961C116.418 94.2405 111.998 100.855 106.426 106.426C100.855 111.998 94.2406 116.417 86.961 119.433C79.6815 122.448 71.8793 124 64 124C56.1207 124 48.3185 122.448 41.039 119.433C33.7595 116.417 27.1451 111.998 21.5736 106.426C16.0021 100.855 11.5825 94.2405 8.56723 86.961C5.55194 79.6815 4 71.8793 4 64C4 56.1207 5.55195 48.3185 8.56723 41.039C11.5825 33.7595 16.0021 27.1451 21.5736 21.5736C27.1451 16.0021 33.7595 11.5825 41.039 8.56722C48.3185 5.55194 56.1207 4 64 4C79.913 4 95.1742 10.3214 106.426 21.5736C117.679 32.8258 124 48.087 124 64V64Z"/>
 <path fill="#D5D3CF" d="M120 62C120 31.072 94.928 5.99999 64.0001 5.99999C33.0721 5.99999 8.00006 31.072 8.00006 62V64C8.00006 94.928 33.0721 120 64.0001 120C94.928 120 120 94.928 120 64V62Z"/>
 <path fill="#F6F5F4" d="M124 62C124 77.913 117.679 93.1742 106.426 104.426C95.1742 115.679 79.913 122 64 122C56.1207 122 48.3185 120.448 41.039 117.433C33.7595 114.417 27.1451 109.998 21.5736 104.426C16.0021 98.8549 11.5825 92.2405 8.56723 84.961C5.55195 77.6815 4 69.8793 4 62C4 54.1207 5.55194 46.3185 8.56723 39.039C11.5825 31.7595 16.0021 25.1451 21.5736 19.5736C27.1451 14.0021 33.7595 9.5825 41.039 6.56722C48.3185 3.55194 56.1207 1.99999 64 1.99999C71.8793 1.99999 79.6815 3.55194 86.961 6.56722C94.2406 9.5825 100.855 14.0021 106.426 19.5736C111.998 25.1451 116.418 31.7595 119.433 39.039C122.448 46.3185 124 54.1207 124 62V62Z"/>
 <path fill="#E01B24" d="M64 116C93.8234 116 118 91.8234 118 62C118 32.1766 93.8234 7.99998 64 7.99998C34.1766 7.99998 10 32.1766 10 62C10 91.8234 34.1766 116 64 116Z"/>
 <path opacity=".1" d="M64.0001 7.99999C49.6784 7.99999 35.9433 13.6893 25.8164 23.8162C15.6894 33.9432 10.0001 47.6783 10.0001 62C10.0097 62.3904 10.0236 62.7808 10.0416 63.1709C10.2592 49.0006 16.0387 35.4837 26.1332 25.5365C36.2278 15.5893 49.8281 10.0092 64.0001 9.99999C78.1139 10.0075 91.6638 15.5404 101.749 25.4142C111.834 35.2879 117.652 48.7177 117.959 62.8281C117.975 62.5522 117.988 62.2761 118 62C118 54.9086 116.603 47.8867 113.89 41.3351C111.176 34.7835 107.198 28.8306 102.184 23.8162C97.1695 18.8019 91.2166 14.8243 84.665 12.1105C78.1135 9.39674 71.0915 7.99999 64.0001 7.99999H64.0001Z"/>
 <path fill="#9A9996" d="M78.0541 94.0944C78.0541 96.597 71.5327 99 63.5243 99C55.5159 99 49.0181 96.597 49.0181 94.0944C49.0181 91.5917 55.5159 89.9372 63.5243 89.9372C71.5327 89.9372 78.0541 91.5917 78.0541 94.0944Z"/>
 <path fill="#DEDDDA" d="M78.0248 93.8795C78.0248 96.0569 71.5327 97.8218 63.5243 97.8218C55.5159 97.8218 49.0238 96.0569 49.0238 93.8795C49.0238 91.7022 55.5159 89.9372 63.5243 89.9372C71.5327 89.9372 78.0248 91.7022 78.0248 93.8795Z"/>
 <path fill="#DEDDDA" d="M78.0248 53.559H49.6671V52.3356H78.0248V53.559Z"/>
 <path fill="#DEDDDA" d="M63.713 94.4158H63.3357C62.4888 94.4158 61.8024 93.7293 61.8024 92.8825V79.2508H65.2463V92.8825C65.2463 93.7293 64.5598 94.4158 63.713 94.4158Z"/>
 <path fill="#DEDDDA" d="M77.569 49.1998V65.1305C77.569 72.6244 71.494 78.6993 64.0001 78.6993C56.5062 78.6993 50.4313 72.6244 50.4313 65.1305V49.1998H47.7324V65.4676C47.7324 74.452 55.0157 81.7353 64.0001 81.7353C72.9845 81.7353 80.2679 74.452 80.2679 65.4676V49.1998H77.569Z"/>
 <path fill="#60767B" d="M64.0756 76.8493C57.4963 76.8493 52.1133 71.4663 52.1133 64.887V40.9623C52.1133 34.3831 57.4963 29 64.0756 29C70.6548 29 76.0379 34.3831 76.0379 40.9623V64.887C76.0379 71.4663 70.6548 76.8493 64.0756 76.8493Z"/>
 <path fill="#DEDDDA" d="M64.0756 76.8493C57.4963 76.8493 52.1133 71.4663 52.1133 64.887V40.9623C52.1133 34.3831 57.4963 29 64.0756 29C70.6548 29 76.0379 34.3831 76.0379 40.9623V64.887C76.0379 71.4663 70.6548 76.8493 64.0756 76.8493Z"/>
 <path fill="#9A9996" d="M52.0378 61.2951V64.887C52.0378 71.4663 57.4208 76.8493 64.0002 76.8493C70.5794 76.8493 75.9624 71.4663 75.9624 64.887V61.2598"/>
 <path fill="#57E389" d="M76.0957 61.4343H52.0071V55.7613H76.0957V61.4343Z"/>
</svg>
